static/img/kroki/eea7ac345c10cc698e90bd740152decc.svg

<?xml version="1.0" encoding="us-ascii" standalone="no"?><svg xmlns="http://www.w3.org/2000/svg" xmlns:xlink="http://www.w3.org/1999/xlink" contentStyleType="text/css" height="152px" preserveAspectRatio="none" style="width:861px;height:152px;" version="1.1" viewBox="0 0 861 152" width="861px" zoomAndPan="magnify"><defs/><g><!--class azure_network_flow_log--><g id="elem_azure_network_flow_log"><rect codeLine="23" fill="#3D176E" height="39.7891" id="azure_network_flow_log" rx="2.5" ry="2.5" style="stroke:#000D19;stroke-width:0.5;" width="246" x="340.5" y="106.79"/><ellipse cx="355.5" cy="126.6845" fill="#ADD1B2" rx="11" ry="11" style="stroke:#181818;stroke-width:1.0;"/><path d="M358.4688,132.3252 Q357.8906,132.622 357.25,132.7627 Q356.6094,132.9189 355.9063,132.9189 Q353.4063,132.9189 352.0781,131.2783 Q350.7656,129.622 350.7656,126.497 Q350.7656,123.372 352.0781,121.7158 Q353.4063,120.0595 355.9063,120.0595 Q356.6094,120.0595 357.25,120.2158 Q357.9063,120.372 358.4688,120.6689 L358.4688,123.3877 Q357.8438,122.8095 357.25,122.5439 Q356.6563,122.2627 356.0313,122.2627 Q354.6875,122.2627 354,123.3408 Q353.3125,124.4033 353.3125,126.497 Q353.3125,128.5908 354,129.6689 Q354.6875,130.7314 356.0313,130.7314 Q356.6563,130.7314 357.25,130.4658 Q357.8438,130.1845 358.4688,129.6064 L358.4688,132.3252 Z " fill="#000000"/><text fill="#D9B8FF" font-family="Helvetica" font-size="17" lengthAdjust="spacing" textLength="204" x="374.5" y="132.5698">azure_network_flow_log</text></g><!--class azure_network_security_group--><g id="elem_azure_network_security_group"><rect codeLine="26" fill="#3D176E" height="39.7891" id="azure_network_security_group" rx="2.5" ry="2.5" style="stroke:#000D19;stroke-width:0.5;" width="299" x="7" y="7"/><ellipse cx="22" cy="26.8945" fill="#ADD1B2" rx="11" ry="11" style="stroke:#181818;stroke-width:1.0;"/><path d="M24.9688,32.5352 Q24.3906,32.832 23.75,32.9727 Q23.1094,33.1289 22.4063,33.1289 Q19.9063,33.1289 18.5781,31.4883 Q17.2656,29.832 17.2656,26.707 Q17.2656,23.582 18.5781,21.9258 Q19.9063,20.2695 22.4063,20.2695 Q23.1094,20.2695 23.75,20.4258 Q24.4063,20.582 24.9688,20.8789 L24.9688,23.5977 Q24.3438,23.0195 23.75,22.7539 Q23.1563,22.4727 22.5313,22.4727 Q21.1875,22.4727 20.5,23.5508 Q19.8125,24.6133 19.8125,26.707 Q19.8125,28.8008 20.5,29.8789 Q21.1875,30.9414 22.5313,30.9414 Q23.1563,30.9414 23.75,30.6758 Q24.3438,30.3945 24.9688,29.8164 L24.9688,32.5352 Z " fill="#000000"/><text fill="#D9B8FF" font-family="Helvetica" font-size="17" lengthAdjust="spacing" textLength="257" x="41" y="32.7798">azure_network_security_group</text></g><!--class azure_network_watcher--><g id="elem_azure_network_watcher"><rect codeLine="29" fill="#3D176E" height="39.7891" id="azure_network_watcher" rx="2.5" ry="2.5" style="stroke:#000D19;stroke-width:0.5;" width="244" x="341.5" y="7"/><ellipse cx="356.5" cy="26.8945" fill="#ADD1B2" rx="11" ry="11" style="stroke:#181818;stroke-width:1.0;"/><path d="M359.4688,32.5352 Q358.8906,32.832 358.25,32.9727 Q357.6094,33.1289 356.9063,33.1289 Q354.4063,33.1289 353.0781,31.4883 Q351.7656,29.832 351.7656,26.707 Q351.7656,23.582 353.0781,21.9258 Q354.4063,20.2695 356.9063,20.2695 Q357.6094,20.2695 358.25,20.4258 Q358.9063,20.582 359.4688,20.8789 L359.4688,23.5977 Q358.8438,23.0195 358.25,22.7539 Q357.6563,22.4727 357.0313,22.4727 Q355.6875,22.4727 355,23.5508 Q354.3125,24.6133 354.3125,26.707 Q354.3125,28.8008 355,29.8789 Q355.6875,30.9414 357.0313,30.9414 Q357.6563,30.9414 358.25,30.6758 Q358.8438,30.3945 359.4688,29.8164 L359.4688,32.5352 Z " fill="#000000"/><text fill="#D9B8FF" font-family="Helvetica" font-size="17" lengthAdjust="spacing" textLength="202" x="375.5" y="32.7798">azure_network_watcher</text></g><!--class azure_storage_account--><g id="elem_azure_storage_account"><rect codeLine="32" fill="#3D176E" height="39.7891" id="azure_storage_account" rx="2.5" ry="2.5" style="stroke:#000D19;stroke-width:0.5;" width="233" x="621" y="7"/><ellipse cx="636" cy="26.8945" fill="#ADD1B2" rx="11" ry="11" style="stroke:#181818;stroke-width:1.0;"/><path d="M638.9688,32.5352 Q638.3906,32.832 637.75,32.9727 Q637.1094,33.1289 636.4063,33.1289 Q633.9063,33.1289 632.5781,31.4883 Q631.2656,29.832 631.2656,26.707 Q631.2656,23.582 632.5781,21.9258 Q633.9063,20.2695 636.4063,20.2695 Q637.1094,20.2695 637.75,20.4258 Q638.4063,20.582 638.9688,20.8789 L638.9688,23.5977 Q638.3438,23.0195 637.75,22.7539 Q637.1563,22.4727 636.5313,22.4727 Q635.1875,22.4727 634.5,23.5508 Q633.8125,24.6133 633.8125,26.707 Q633.8125,28.8008 634.5,29.8789 Q635.1875,30.9414 636.5313,30.9414 Q637.1563,30.9414 637.75,30.6758 Q638.3438,30.3945 638.9688,29.8164 L638.9688,32.5352 Z " fill="#000000"/><text fill="#D9B8FF" font-family="Helvetica" font-size="17" lengthAdjust="spacing" textLength="191" x="655" y="32.7798">azure_storage_account</text></g><!--link azure_network_security_group to azure_network_flow_log--><g id="link_azure_network_security_group_azure_network_flow_log"><path codeLine="35" d="M217.15,47.22 C270.89,64.33 343.2231,87.3687 396.9931,104.4987 " fill="none" id="azure_network_security_group-to-azure_network_flow_log" style="stroke:#1A83AF;stroke-width:2.0;"/><polygon fill="#1A83AF" points="402.71,106.32,395.3488,99.7768,397.9459,104.8023,392.9205,107.3993,402.71,106.32" style="stroke:#1A83AF;stroke-width:2.0;"/></g><!--link azure_network_watcher to azure_network_flow_log--><g id="link_azure_network_watcher_azure_network_flow_log"><path codeLine="36" d="M463.5,47.22 C463.5,64.36 463.5,83.27 463.5,100.41 " fill="none" id="azure_network_watcher-to-azure_network_flow_log" style="stroke:#1A83AF;stroke-width:2.0;"/><polygon fill="#1A83AF" points="463.5,106.41,467.5,97.41,463.5,101.41,459.5,97.41,463.5,106.41" style="stroke:#1A83AF;stroke-width:2.0;"/></g><!--link azure_storage_account to azure_network_flow_log--><g id="link_azure_storage_account_azure_network_flow_log"><path codeLine="37" d="M683.37,47.22 C635.33,64.36 571.1706,87.2523 523.1706,104.3923 " fill="none" id="azure_storage_account-to-azure_network_flow_log" style="stroke:#1A83AF;stroke-width:2.0;"/><polygon fill="#1A83AF" points="517.52,106.41,527.341,107.1505,522.2288,104.7286,524.6507,99.6164,517.52,106.41" style="stroke:#1A83AF;stroke-width:2.0;"/></g><!--SRC=[ZP31IiD048RlUOg5dWkDHTjUX5WeUYbYlOc4wUviiYJP3RCJGnNVtSQgnAHfUvtvPlvl9ZKA1HObxqI1nHR91pupjWI2GaH4hbwwt94OQGrwEkisLyxoMM0D1OfxpD-GZOGkyPmQcLdqNborMdSWiuHSPTLXFHDOls-XvHQrpC7xY9dCjc9ioQZ5Tgvrb-mk7KrLEBl17kP88VqWayb4XOikSZRgvDr_nCQyemZRJrixnfvcB-AREcdP42t9tg6__K77Hr3As4HSjsfF1oUoIF_gcnIKgnjQG-xRCPwHqF6kn6NlAbpCbPuTXH-6u40shnFmNX765hbsbCKwTtMSkqHy1C7dKSAZhCZmBcvsbiDS3IpJ_N4zmBCZI306AVTIV01EPenVHc4qdqQhr_7jW6zmFFpooQxL9PDV]--></g></svg>

<svg xmlns="http://www.w3.org/2000/svg" width="861" height="152" viewBox="0 0 861 152"><rect width="246" height="39.789" x="340.5" y="106.79" fill="#3D176E" rx="2.5" ry="2.5" style="stroke:#000d19;stroke-width:.5"/><circle cx="355.5" cy="126.684" r="11" fill="#ADD1B2" style="stroke:#181818;stroke-width:1"/><path d="M358.469 132.325q-.578.297-1.219.438-.64.156-1.344.156-2.5 0-3.828-1.64-1.312-1.657-1.312-4.782t1.312-4.781q1.328-1.656 3.828-1.656.703 0 1.344.156.656.156 1.219.453v2.719q-.625-.579-1.219-.844-.594-.281-1.219-.281-1.344 0-2.031 1.078-.687 1.062-.687 3.156t.687 3.172q.688 1.062 2.031 1.062.625 0 1.219-.265.594-.281 1.219-.86z"/><text x="374.5" y="132.57" fill="#D9B8FF" font-family="Helvetica" font-size="17" textLength="204">azure_network_flow_log</text><rect width="299" height="39.789" x="7" y="7" fill="#3D176E" rx="2.5" ry="2.5" style="stroke:#000d19;stroke-width:.5"/><circle cx="22" cy="26.895" r="11" fill="#ADD1B2" style="stroke:#181818;stroke-width:1"/><path d="M24.969 32.535q-.578.297-1.219.438-.64.156-1.344.156-2.5 0-3.828-1.64-1.312-1.657-1.312-4.782t1.312-4.781q1.328-1.656 3.828-1.656.703 0 1.344.156.656.156 1.219.453v2.719q-.625-.578-1.219-.844-.594-.281-1.219-.281-1.343 0-2.031 1.078-.687 1.062-.687 3.156t.687 3.172q.688 1.062 2.031 1.062.625 0 1.219-.265.594-.281 1.219-.86z"/><text x="41" y="32.78" fill="#D9B8FF" font-family="Helvetica" font-size="17" textLength="257">azure_network_security_group</text><rect width="244" height="39.789" x="341.5" y="7" fill="#3D176E" rx="2.5" ry="2.5" style="stroke:#000d19;stroke-width:.5"/><circle cx="356.5" cy="26.895" r="11" fill="#ADD1B2" style="stroke:#181818;stroke-width:1"/><path d="M359.469 32.535q-.578.297-1.219.438-.64.156-1.344.156-2.5 0-3.828-1.64-1.312-1.657-1.312-4.782t1.312-4.781q1.328-1.656 3.828-1.656.703 0 1.344.156.656.156 1.219.453v2.719q-.625-.578-1.219-.844-.594-.281-1.219-.281-1.344 0-2.031 1.078-.687 1.062-.687 3.156t.687 3.172q.688 1.062 2.031 1.062.625 0 1.219-.265.594-.281 1.219-.86z"/><text x="375.5" y="32.78" fill="#D9B8FF" font-family="Helvetica" font-size="17" textLength="202">azure_network_watcher</text><rect width="233" height="39.789" x="621" y="7" fill="#3D176E" rx="2.5" ry="2.5" style="stroke:#000d19;stroke-width:.5"/><circle cx="636" cy="26.895" r="11" fill="#ADD1B2" style="stroke:#181818;stroke-width:1"/><path d="M638.969 32.535q-.578.297-1.219.438-.64.156-1.344.156-2.5 0-3.828-1.64-1.312-1.657-1.312-4.782t1.312-4.781q1.328-1.656 3.828-1.656.703 0 1.344.156.656.156 1.219.453v2.719q-.625-.578-1.219-.844-.594-.281-1.219-.281-1.343 0-2.031 1.078-.687 1.062-.687 3.156t.687 3.172q.688 1.062 2.031 1.062.625 0 1.219-.265.594-.281 1.219-.86z"/><text x="655" y="32.78" fill="#D9B8FF" font-family="Helvetica" font-size="17" textLength="191">azure_storage_account</text><path fill="none" d="M217.15 47.22c53.74 17.11 126.073 40.149 179.843 57.279" style="stroke:#1a83af;stroke-width:2"/><path fill="#1A83AF" d="m402.71 106.32-7.361-6.543 2.597 5.025-5.026 2.597z" style="stroke:#1a83af;stroke-width:2"/><path fill="none" d="M463.5 47.22v53.19" style="stroke:#1a83af;stroke-width:2"/><path fill="#1A83AF" d="m463.5 106.41 4-9-4 4-4-4z" style="stroke:#1a83af;stroke-width:2"/><path fill="none" d="M683.37 47.22c-48.04 17.14-112.2 40.032-160.2 57.172" style="stroke:#1a83af;stroke-width:2"/><path fill="#1A83AF" d="m517.52 106.41 9.821.74-5.112-2.421 2.422-5.113z" style="stroke:#1a83af;stroke-width:2"/></svg>
